icons/citrix-full.svg

<?xml version="1.0" encoding="UTF-8" standalone="no"?>
<svg
   xmlns:dc="http://purl.org/dc/elements/1.1/"
   xmlns:cc="http://creativecommons.org/ns#"
   xmlns:rdf="http://www.w3.org/1999/02/22-rdf-syntax-ns#"
   xmlns:svg="http://www.w3.org/2000/svg"
   xmlns="http://www.w3.org/2000/svg"
   style="display: block;"
   height="515"
   width="515"
   version="1.1"
   id="svg">
  <metadata
     id="metadata9">
    <rdf:RDF>
      <cc:Work
         rdf:about="">
        <dc:format>image/svg+xml</dc:format>
        <dc:type
           rdf:resource="http://purl.org/dc/dcmitype/StillImage" />
        <dc:title></dc:title>
      </cc:Work>
    </rdf:RDF>
  </metadata>
  <defs
     id="defs7" />
  <g
     id="svgg">
    <path
       style="fill:#000000;fill-rule:evenodd;stroke:none;stroke-width:1.05198228"
       d="m 124.6489,161.4811 c -16.28574,7.2145 -16.45826,29.05681 -0.28193,35.81474 19.13135,7.99401 35.29821,-14.97602 21.55722,-30.62741 -5.57025,-6.34346 -14.01556,-8.40324 -21.27529,-5.18733 m -81.46972,43.78351 c -50.407838,10.60398 -58.953091,86.40036 -12.31135,109.20102 21.745527,10.62923 49.827144,6.46023 69.044757,-10.25051 l 4.718143,-4.10379 -4.20688,-5.09475 c -2.314361,-2.80248 -5.507127,-6.98937 -7.09562,-9.30373 -1.587442,-2.31436 -3.759785,-5.3346 -4.827547,-6.7127 l -1.939856,-2.50477 -5.947908,4.84438 c -22.295713,18.16037 -52.454995,2.47952 -47.056222,-24.46595 4.554032,-22.73124 31.358542,-29.84264 48.369096,-12.83208 l 4.297348,4.29735 8.430586,-12.70269 c 9.998043,-15.06649 9.731893,-13.3707 2.906628,-18.57591 C 83.501663,206.33868 61.135466,201.48694 43.17918,205.26461 m 72.52787,56.77864 v 55.75506 h 15.77974 15.77973 v -55.75506 -55.75506 h -15.77973 -15.77974 v 55.75506 m 44.18326,-41.5533 v 14.20176 h 14.20176 14.20176 v 41.5533 41.5533 h 15.77974 15.77973 v -41.5533 -41.5533 h 14.72775 14.72776 v -14.20176 -14.20176 h -44.70925 -44.70925 v 14.20176 m 100.9903,41.5533 v 55.75506 h 15.75449 15.75554 l 0.28719,-18.01414 0.28824,-18.01415 7.47118,12.49124 c 4.10905,6.8705 8.84297,14.97602 10.51983,18.01309 l 3.04864,5.52186 18.67269,0.001 c 10.26945,10e-4 18.67268,-0.21671 18.67268,-0.48181 0,-0.5081 -12.62378,-19.3733 -22.5545,-33.70656 -6.98516,-10.08115 -6.94939,-8.89241 -0.36819,-12.0978 12.02942,-5.85954 16.02485,-13.18765 16.06061,-29.45551 0.0621,-28.48557 -12.01679,-35.65483 -60.20179,-35.73058 l -23.40661,-0.0368 v 55.75506 m 100.99031,0 v 55.75506 h 15.77973 15.77974 v -55.75506 -55.75506 h -15.77974 -15.77973 v 55.75506 m 40.65491,-54.44009 c 0.44288,0.72377 7.25762,10.78282 15.14644,22.35463 7.88776,11.5718 15.42942,22.93952 16.75808,25.2623 l 2.41745,4.22161 -6.71796,10.139 c -3.69456,5.57551 -12.28084,18.49701 -19.07875,28.71491 -6.79791,10.21685 -12.36079,18.78525 -12.36079,19.03983 0,0.25458 8.18442,0.46287 18.18772,0.46287 h 18.18667 l 3.61461,-6.0489 c 1.98825,-3.32742 3.91969,-6.28559 4.29104,-6.57489 0.62067,-0.48285 3.33794,-4.65081 10.84804,-16.63815 l 2.84456,-4.54035 1.882,2.43639 c 1.03515,1.34022 6.03522,8.94606 11.11209,16.90115 l 9.23009,14.46475 h 18.28661 c 10.058,0 18.28661,-0.20408 18.28661,-0.45445 0,-0.53125 -34.20836,-51.9006 -36.15663,-54.29386 -0.72692,-0.89314 -1.63268,-2.12606 -2.01139,-2.73937 -0.37977,-0.61435 3.582,-7.4575 8.80298,-15.2085 5.22099,-7.75101 12.83208,-19.03983 16.91378,-25.08768 4.08064,-6.04679 7.65632,-11.60862 7.94457,-12.36079 0.41763,-1.08775 -3.19172,-1.36127 -17.73537,-1.34654 l -18.25926,0.0189 -3.41894,5.22835 c -1.88095,2.87612 -3.41895,5.51239 -3.41895,5.85849 0,0.78057 -10.63554,16.22683 -11.1731,16.22683 -0.21461,0 -4.47198,-6.1541 -9.45943,-13.67577 l -9.07019,-13.67577 h -18.34762 c -14.4069,0 -18.17615,0.28298 -17.54496,1.31497 m -96.40998,26.82766 c 12.3124,6.15094 5.91635,23.39819 -8.67885,23.4024 l -4.99692,0.002 v -12.62379 -12.62379 l 4.99692,0.002 c 2.74883,0 6.65379,0.82896 8.67885,1.84097 m 66.27489,91.34047 c -17.01581,5.14314 -18.85047,28.35829 -2.85192,36.10298 10.93009,5.29147 23.88526,-0.77321 27.09275,-12.6827 3.92495,-14.57942 -9.75714,-27.79863 -24.24083,-23.42028"
       id="path0" />
  </g>
</svg>

<?xml version="1.0" encoding="UTF-8" standalone="no"?>
<!DOCTYPE svg PUBLIC "-//W3C//DTD SVG 1.1//EN" "http://www.w3.org/Graphics/SVG/1.1/DTD/svg11.dtd">
<svg width="100%" height="100%" viewBox="0 0 515 515" version="1.1" xmlns="http://www.w3.org/2000/svg" xmlns:xlink="http://www.w3.org/1999/xlink" xml:space="preserve" xmlns:serif="http://www.serif.com/" style="fill-rule:evenodd;clip-rule:evenodd;stroke-linejoin:round;stroke-miterlimit:2;">
    <g id="svgg">
        <path id="path0" d="M124.649,161.481C108.363,168.696 108.191,190.538 124.367,197.296C143.498,205.29 159.665,182.32 145.924,166.668C140.354,160.325 131.909,158.265 124.649,161.481M43.179,205.265C-7.229,215.869 -15.774,291.665 30.868,314.466C52.613,325.095 80.695,320.926 99.913,304.215L104.631,300.111L100.424,295.017C98.109,292.214 94.917,288.027 93.328,285.713C91.741,283.398 89.568,280.378 88.501,279L86.561,276.495L80.613,281.34C58.317,299.5 28.158,283.819 33.557,256.874C38.111,234.143 64.915,227.031 81.926,244.042L86.223,248.339L94.654,235.636C104.652,220.57 104.386,222.266 97.56,217.06C83.502,206.339 61.135,201.487 43.179,205.265M115.707,317.798L147.267,317.798L147.267,206.288L115.707,206.288M159.89,234.692L188.294,234.692L188.294,317.798L219.853,317.798L219.853,234.692L249.309,234.692L249.309,206.288L159.89,206.288M260.881,317.798L292.391,317.798L292.966,281.77L314.006,317.796C314.006,317.796 351.351,317.58 351.351,317.315C351.351,316.807 338.727,297.942 328.797,283.609C321.811,273.528 321.847,274.716 328.428,271.511C340.458,265.651 344.453,258.323 344.489,242.056C344.551,213.57 332.472,206.401 284.287,206.325L260.881,206.288M361.871,317.798L393.43,317.798L393.43,206.288L361.871,206.288M402.526,207.603C402.969,208.327 436.848,259.442 436.848,259.442C436.848,259.442 398.69,317.081 398.69,317.335C398.69,317.59 435.065,317.798 435.065,317.798L456.663,283.996L478.887,317.798C478.887,317.798 515.46,317.594 515.46,317.344C515.46,316.813 481.252,265.443 479.304,263.05C478.577,262.157 510.665,208.406 510.954,207.654C511.371,206.566 474.959,206.326 474.959,206.326C474.959,206.326 457.486,233.64 456.948,233.64C456.733,233.64 438.418,206.288 438.418,206.288C438.418,206.288 401.895,206.571 402.526,207.603M306.116,234.431C318.428,240.582 312.032,257.829 297.437,257.833L292.44,257.835L292.44,232.588L297.437,232.59C300.186,232.59 304.091,233.419 306.116,234.431M372.391,325.771C355.375,330.914 353.54,354.129 369.539,361.874C380.469,367.165 393.424,361.101 396.632,349.191C400.557,334.612 386.874,321.393 372.391,325.771"/>
    </g>
</svg>
